X:529
T: Der Wildschtz (231)
N: T0417
O: Luxemburg
S: Singendes Volk, Esch-Alzette, 1937 posth.]
N: Straen, fff Witry, 17.1.1933
R: Jgerlied]
M: 3/4
L: 1/8
K: G
D2 | G3AB2 | A2G2A2 | B2G2
GA | B3AB2 | c2B2c2 | d3edc | B2z2
Bc | d2d2dc | B3A
B2 | c2B2cA | A2G2
A2 | B2G2Bd | d4
Bd | d2BGA2 | G2z2

@@@ Tune index: 8583
